X:19
T:Craven's Stomp (2)
T:Portsmouth
M:4/4
L:1/8
Q:200
N:We tired of the old tune!
Z:Brian Martin
K:G
"Portsmouth"
D2 | G2GA BAGF | E4  e4 | d2B2 cBAG |A6 D2 | G2GA  BAGF | E4 e4 | d2B2\
cBAB |G6 |]!
d2 | g2ga bagf| g2d2 B2d2|g2B2 cBAG |A6 D2 |  G2 GA BAGF | E4  e4 |\
 d2B2 cBAB | G6 :|
